_includes/icons/ios-graduate.svg

<svg fill="#666" height="50" viewBox="0 0 50 50" width="50" xmlns="http://www.w3.org/2000/svg"><path d="m25 1.96875c-.5 0-1.003906.128906-1.449219.390625-.007812 0-.011718.003906-.019531.007813 0 0-5.261719 3.203125-10.53125 6.480468-2.632812 1.640625-5.265625 3.296875-7.257812 4.589844-.992188.648438-1.824219 1.203125-2.421875 1.625-.300782.214844-.542969.390625-.734375.546875-.09375.078125-.175782.148438-.265625.242188-.046875.046875-.09375.097656-.15625.1875-.058594.089843-.175782.203125-.195313.5625-.035156.625.148438.65625.242188.804687.089843.148438.195312.28125.316406.4375.246094.304688.566406.667969.949219 1.082031.136718.144532.339843.347657.492187.507813 0 3.074219.007813 7.480469.011719 8.847656-.605469.359375-.980469 1.011719-.980469 1.71875 0 .230469.042969.460938.121094.679688-.675781.546875-1.121094 1.363281-1.121094 2.289062 0 1.179688.613281 2.183594 1.144531 3.066406.53125.886719 1.0625 1.574219 1.0625 1.574219.1875.246094.480469.390625.789063.390625s.601562-.140625.792969-.382812c0 0 .53125-.679688 1.066406-1.558594.535156-.882813 1.144531-1.898438 1.144531-3.089844 0-.925781-.445312-1.742187-1.121094-2.289062.078125-.21875.121094-.449219.121094-.679688 0-.695312-.363281-1.339844-.953125-1.703125-.003906-1.023437-.007812-3.8125-.007812-6.730469.078125.078125.136718.148438.21875.226563 1.507812 1.511719 2.355468 2.320312 3.015625 2.960937-.453125.328125-.863282.726563-1.234375 1.175782.003906.535156.007812 1.050781.007812 1.507812.300781.355469.539063.765625.703125 1.207031.609375-1.210937 1.390625-2.160156 2.378906-2.582031.175782-.015625.347657-.074219.492188-.175781.671875-.234375 5.550781-1.839844 13.304687-1.851563-1.742187 1.9375-5.28125 4.25-10.550781 4.300782-.261719-.070313-.8125-.1875-1.554687.070312-.476563.167969-.988282.535156-1.320313 1.105469-.332031.566406-.496094 1.285156-.496094 2.1875 0 1.878906 1.183594 3.464844 2.839844 3.984375 1.011719 2.859375 2.261719 5.730469 3.9375 8.003906-3.6875-.585937-7.738281-.6875-10.78125-.6875v-3.8125c-.550781.511719-1.230469.8125-2 .8125v4c0 .285156.085938.558594.292969.75.207031.195313.425781.261719.707031.25.085938-.007812 8.773438-.476562 14.296875 1.308594 1.363281 1.039062 2.929688 1.691406 4.710938 1.691406 1.785156 0 3.359375-.65625 4.726562-1.703125 5.421875-1.738281 14.203125-1.265625 14.203125-1.265625.285156.015625.5625-.082031.769531-.277344.207032-.195312.328125-.46875.324219-.753906v-7c0-1.957031-.28125-4.695312-1.09375-7.214844-.644531-1.984375-1.632812-3.898437-3.214844-5.03125.660157-.636718 1.511719-1.449218 3.023438-2.960937 1.003906-1.007813 2.011719-2.039063 2.777344-2.867188.382812-.414062.703125-.777343.949218-1.082031.121094-.15625.226563-.289062.320313-.4375.089844-.148437.273437-.179687.238281-.804687-.019531-.363282-.136719-.476563-.199219-.566407-.058593-.085937-.105468-.136718-.152343-.183593-.089844-.09375-.171875-.164063-.269532-.242188-.1875-.15625-.429687-.332031-.730468-.546875-.597657-.421875-1.429688-.976562-2.425782-1.625-1.988281-1.292969-4.621093-2.949219-7.253906-4.589844-5.269531-3.277343-10.53125-6.480468-10.53125-6.480468-.007812-.003907-.011719-.007813-.019531-.007813-.445313-.261719-.949219-.390625-1.449219-.390625zm0 2.0625c.140625 0 .28125.039063.410156.113281.019532.011719 5.25 3.191407 10.496094 6.457032 2.628906 1.636718 5.257813 3.292968 7.222656 4.570312.984375.640625 1.800782 1.1875 2.359375 1.578125.054688.039063.070313.054688.117188.089844-.175781.207031-.34375.40625-.601563.683594-.730468.792968-1.722656 1.808593-2.722656 2.808593-1.121094 1.125-1.480469 1.460938-2.25 2.210938v-3.542969c0-.371094-.199219-.714844-.519531-.898437 0 0-5.566406-3.132813-14.511719-3.132813-8.945312 0-14.511719 3.132813-14.511719 3.132813-.320312.183593-.519531.527343-.519531.898437v3.542969c-.769531-.75-1.128906-1.085938-2.25-2.210938-.679687-.675781-1.257812-1.285156-1.851562-1.90625-.070313-.113281-.167969-.210937-.277344-.285156-.183594-.195312-.4375-.441406-.597656-.613281-.253907-.28125-.421875-.484375-.601563-.6875.050781-.039063.066406-.050781.121094-.089844.558594-.394531 1.375-.941406 2.359375-1.578125 1.964844-1.28125 4.59375-2.933594 7.222656-4.570312 5.246094-3.265625 10.476563-6.445313 10.496094-6.457032.128906-.074218.269531-.113281.410156-.113281zm0 13c7.847656 0 12.292969 2.296875 12.96875 2.65625v3.976563c-1.585937-.496094-5.808594-1.695313-12.96875-1.695313s-11.382812 1.199219-12.96875 1.695313v-3.976563c.675781-.359375 5.121094-2.65625 12.96875-2.65625zm2.410156 7.070313c1.261719.058593 2.4375.144531 3.511719.269531.476563 1.460937 1.4375 2.679687 2.296875 3.601562.984375 1.054688 1.894531 1.730469 1.894531 1.730469.226563.167969.507813.234375.78125.183594 0 0 .261719-.035156.507813.09375.242187.125.601562.339844.601562 1.71875 0 1.21875-.804687 2.101562-1.707031 2.207031-.382812.042969-.707031.304688-.832031.667969-1.019531 2.957031-2.320313 5.90625-3.914063 8.035156-.519531.695313-1.0625 1.289063-1.632812 1.785156-.167969.078125-.308594.195313-.417969.34375-1.054687.808594-2.203125 1.261719-3.492187 1.261719-1.320313 0-2.496094-.472656-3.574219-1.316406-.074219-.09375-.160156-.164063-.265625-.226563-.59375-.507812-1.164063-1.121093-1.703125-1.847656-1.59375-2.128906-2.894531-5.078125-3.914063-8.035156-.125-.367188-.449218-.625-.832031-.667969-.90625-.105469-1.714844-.988281-1.714844-2.207031 0-.65625.121094-1.011719.21875-1.179688.101563-.164062.160157-.191406.257813-.222656.191406-.070312.503906-.007812.503906-.007812.105469.035156.210938.050781.316406.050781 6.9375-.039063 11.378907-3.421875 13.109375-6.238281zm5.867188.597656c3.015625.496094 4.71875 1.054687 5.101562 1.1875.140625.097656.300782.15625.46875.175781 1.355469.566406 2.433594 2.226563 3.121094 4.359375.71875 2.226563 1 4.832031 1 6.578125v5.957031c-1.257812-.066406-5.980469-.257812-10.636719.597657 1.625-2.253907 2.847657-5.066407 3.839844-7.871094 1.652344-.519531 2.832031-2.105469 2.832031-3.984375 0-1.851563-.785156-3.03125-1.6875-3.496094-.546875-.285156-.742187-.179687-1.082031-.171875-.066406-.050781-.738281-.546875-1.550781-1.421875-.515625-.550781-1.019531-1.21875-1.40625-1.910156zm-28.277344 7.300781c.574219 0 1 .433594 1 .96875 0 .285156-.390625 1.28125-.855469 2.046875-.070312.117188-.070312.101563-.140625.207031-.070312-.113281-.074218-.097656-.148437-.21875-.46875-.773437-.855469-1.789062-.855469-2.035156 0-.535156.425781-.96875 1-.96875z"/></svg>

<svg xmlns="http://www.w3.org/2000/svg" viewBox="0 0 50 50" width="50" height="50" fill="#666"><path d="M 25 1.96875 C 24.5 1.96875 23.996094 2.097656 23.550781 2.359375 C 23.542969 2.359375 23.539063 2.363281 23.53125 2.367188 C 23.53125 2.367188 18.269531 5.570313 13 8.847656 C 10.367188 10.488281 7.734375 12.144531 5.742188 13.4375 C 4.75 14.085938 3.917969 14.640625 3.320313 15.0625 C 3.019531 15.277344 2.777344 15.453125 2.585938 15.609375 C 2.492188 15.6875 2.410156 15.757813 2.320313 15.851563 C 2.273438 15.898438 2.226563 15.949219 2.164063 16.039063 C 2.105469 16.128906 1.988281 16.242188 1.96875 16.601563 C 1.933594 17.226563 2.117188 17.257813 2.210938 17.40625 C 2.300781 17.554688 2.40625 17.6875 2.527344 17.84375 C 2.773438 18.148438 3.09375 18.511719 3.476563 18.925781 C 3.613281 19.070313 3.816406 19.273438 3.96875 19.433594 C 3.96875 22.507813 3.976563 26.914063 3.980469 28.28125 C 3.375 28.640625 3 29.292969 3 30 C 3 30.230469 3.042969 30.460938 3.121094 30.679688 C 2.445313 31.226563 2 32.042969 2 32.96875 C 2 34.148438 2.613281 35.152344 3.144531 36.035156 C 3.675781 36.921875 4.207031 37.609375 4.207031 37.609375 C 4.394531 37.855469 4.6875 38 4.996094 38 C 5.304688 38 5.597656 37.859375 5.789063 37.617188 C 5.789063 37.617188 6.320313 36.9375 6.855469 36.058594 C 7.390625 35.175781 8 34.160156 8 32.96875 C 8 32.042969 7.554688 31.226563 6.878906 30.679688 C 6.957031 30.460938 7 30.230469 7 30 C 7 29.304688 6.636719 28.660156 6.046875 28.296875 C 6.042969 27.273438 6.039063 24.484375 6.039063 21.566406 C 6.117188 21.644531 6.175781 21.714844 6.257813 21.792969 C 7.765625 23.304688 8.613281 24.113281 9.273438 24.753906 C 8.820313 25.082031 8.410156 25.480469 8.039063 25.929688 C 8.042969 26.464844 8.046875 26.980469 8.046875 27.4375 C 8.347656 27.792969 8.585938 28.203125 8.75 28.644531 C 9.359375 27.433594 10.140625 26.484375 11.128906 26.0625 C 11.304688 26.046875 11.476563 25.988281 11.621094 25.886719 C 12.292969 25.652344 17.171875 24.046875 24.925781 24.035156 C 23.183594 25.972656 19.644531 28.285156 14.375 28.335938 C 14.113281 28.265625 13.5625 28.148438 12.820313 28.40625 C 12.34375 28.574219 11.832031 28.941406 11.5 29.511719 C 11.167969 30.078125 11.003906 30.796875 11.003906 31.699219 C 11.003906 33.578125 12.1875 35.164063 13.84375 35.683594 C 14.855469 38.542969 16.105469 41.414063 17.78125 43.6875 C 14.09375 43.101563 10.042969 43 7 43 L 7 39.1875 C 6.449219 39.699219 5.769531 40 5 40 L 5 44 C 5 44.285156 5.085938 44.558594 5.292969 44.75 C 5.5 44.945313 5.71875 45.011719 6 45 C 6.085938 44.992188 14.773438 44.523438 20.296875 46.308594 C 21.660156 47.347656 23.226563 48 25.007813 48 C 26.792969 48 28.367188 47.34375 29.734375 46.296875 C 35.15625 44.558594 43.9375 45.03125 43.9375 45.03125 C 44.222656 45.046875 44.5 44.949219 44.707031 44.753906 C 44.914063 44.558594 45.035156 44.285156 45.03125 44 L 45.03125 37 C 45.03125 35.042969 44.75 32.304688 43.9375 29.785156 C 43.292969 27.800781 42.304688 25.886719 40.722656 24.753906 C 41.382813 24.117188 42.234375 23.304688 43.746094 21.792969 C 44.75 20.785156 45.757813 19.753906 46.523438 18.925781 C 46.90625 18.511719 47.226563 18.148438 47.472656 17.84375 C 47.59375 17.6875 47.699219 17.554688 47.792969 17.40625 C 47.882813 17.257813 48.066406 17.226563 48.03125 16.601563 C 48.011719 16.238281 47.894531 16.125 47.832031 16.035156 C 47.773438 15.949219 47.726563 15.898438 47.679688 15.851563 C 47.589844 15.757813 47.507813 15.6875 47.410156 15.609375 C 47.222656 15.453125 46.980469 15.277344 46.679688 15.0625 C 46.082031 14.640625 45.25 14.085938 44.253906 13.4375 C 42.265625 12.144531 39.632813 10.488281 37 8.847656 C 31.730469 5.570313 26.46875 2.367188 26.46875 2.367188 C 26.460938 2.363281 26.457031 2.359375 26.449219 2.359375 C 26.003906 2.097656 25.5 1.96875 25 1.96875 Z M 25 4.03125 C 25.140625 4.03125 25.28125 4.070313 25.410156 4.144531 C 25.429688 4.15625 30.660156 7.335938 35.90625 10.601563 C 38.535156 12.238281 41.164063 13.894531 43.128906 15.171875 C 44.113281 15.8125 44.929688 16.359375 45.488281 16.75 C 45.542969 16.789063 45.558594 16.804688 45.605469 16.839844 C 45.429688 17.046875 45.261719 17.246094 45.003906 17.523438 C 44.273438 18.316406 43.28125 19.332031 42.28125 20.332031 C 41.160156 21.457031 40.800781 21.792969 40.03125 22.542969 L 40.03125 19 C 40.03125 18.628906 39.832031 18.285156 39.511719 18.101563 C 39.511719 18.101563 33.945313 14.96875 25 14.96875 C 16.054688 14.96875 10.488281 18.101563 10.488281 18.101563 C 10.167969 18.285156 9.96875 18.628906 9.96875 19 L 9.96875 22.542969 C 9.199219 21.792969 8.839844 21.457031 7.71875 20.332031 C 7.039063 19.65625 6.460938 19.046875 5.867188 18.425781 C 5.796875 18.3125 5.699219 18.214844 5.589844 18.140625 C 5.40625 17.945313 5.152344 17.699219 4.992188 17.527344 C 4.738281 17.246094 4.570313 17.042969 4.390625 16.839844 C 4.441406 16.800781 4.457031 16.789063 4.511719 16.75 C 5.070313 16.355469 5.886719 15.808594 6.871094 15.171875 C 8.835938 13.890625 11.464844 12.238281 14.09375 10.601563 C 19.339844 7.335938 24.570313 4.15625 24.589844 4.144531 C 24.71875 4.070313 24.859375 4.03125 25 4.03125 Z M 25 17.03125 C 32.847656 17.03125 37.292969 19.328125 37.96875 19.6875 L 37.96875 23.664063 C 36.382813 23.167969 32.160156 21.96875 25 21.96875 C 17.839844 21.96875 13.617188 23.167969 12.03125 23.664063 L 12.03125 19.6875 C 12.707031 19.328125 17.152344 17.03125 25 17.03125 Z M 27.410156 24.101563 C 28.671875 24.160156 29.847656 24.246094 30.921875 24.371094 C 31.398438 25.832031 32.359375 27.050781 33.21875 27.972656 C 34.203125 29.027344 35.113281 29.703125 35.113281 29.703125 C 35.339844 29.871094 35.621094 29.9375 35.894531 29.886719 C 35.894531 29.886719 36.15625 29.851563 36.402344 29.980469 C 36.644531 30.105469 37.003906 30.320313 37.003906 31.699219 C 37.003906 32.917969 36.199219 33.800781 35.296875 33.90625 C 34.914063 33.949219 34.589844 34.210938 34.464844 34.574219 C 33.445313 37.53125 32.144531 40.480469 30.550781 42.609375 C 30.03125 43.304688 29.488281 43.898438 28.917969 44.394531 C 28.75 44.472656 28.609375 44.589844 28.5 44.738281 C 27.445313 45.546875 26.296875 46 25.007813 46 C 23.6875 46 22.511719 45.527344 21.433594 44.683594 C 21.359375 44.589844 21.273438 44.519531 21.167969 44.457031 C 20.574219 43.949219 20.003906 43.335938 19.464844 42.609375 C 17.871094 40.480469 16.570313 37.53125 15.550781 34.574219 C 15.425781 34.207031 15.101563 33.949219 14.71875 33.90625 C 13.8125 33.800781 13.003906 32.917969 13.003906 31.699219 C 13.003906 31.042969 13.125 30.6875 13.222656 30.519531 C 13.324219 30.355469 13.382813 30.328125 13.480469 30.296875 C 13.671875 30.226563 13.984375 30.289063 13.984375 30.289063 C 14.089844 30.324219 14.195313 30.339844 14.300781 30.339844 C 21.238281 30.300781 25.679688 26.917969 27.410156 24.101563 Z M 33.277344 24.699219 C 36.292969 25.195313 37.996094 25.753906 38.378906 25.886719 C 38.519531 25.984375 38.679688 26.042969 38.847656 26.0625 C 40.203125 26.628906 41.28125 28.289063 41.96875 30.421875 C 42.6875 32.648438 42.96875 35.253906 42.96875 37 L 42.96875 42.957031 C 41.710938 42.890625 36.988281 42.699219 32.332031 43.554688 C 33.957031 41.300781 35.179688 38.488281 36.171875 35.683594 C 37.824219 35.164063 39.003906 33.578125 39.003906 31.699219 C 39.003906 29.847656 38.21875 28.667969 37.316406 28.203125 C 36.769531 27.917969 36.574219 28.023438 36.234375 28.03125 C 36.167969 27.980469 35.496094 27.484375 34.683594 26.609375 C 34.167969 26.058594 33.664063 25.390625 33.277344 24.699219 Z M 5 32 C 5.574219 32 6 32.433594 6 32.96875 C 6 33.253906 5.609375 34.25 5.144531 35.015625 C 5.074219 35.132813 5.074219 35.117188 5.003906 35.222656 C 4.933594 35.109375 4.929688 35.125 4.855469 35.003906 C 4.386719 34.230469 4 33.214844 4 32.96875 C 4 32.433594 4.425781 32 5 32 Z"/></svg>
